src/cui/assets/icons/close.svg

<svg fill="none" height="24" viewBox="0 0 24 24" width="24" xmlns="http://www.w3.org/2000/svg"><mask height="13" maskUnits="userSpaceOnUse" width="14" x="5" y="5"><path d="m13.4141 12 4.293-4.29299c.391-.391.391-1.023 0-1.414s-1.023-.391-1.414 0l-4.293 4.29299-4.29297-4.29299c-.391-.391-1.023-.391-1.414 0s-.391 1.023 0 1.414l4.29297 4.29299-4.29297 4.293c-.391.391-.391 1.023 0 1.414.195.195.451.293.707.293s.512-.098.707-.293l4.29297-4.293 4.293 4.293c.195.195.451.293.707.293s.512-.098.707-.293c.391-.391.391-1.023 0-1.414z" fill="#fff"/></mask><path d="m13.4141 12 4.293-4.29299c.391-.391.391-1.023 0-1.414s-1.023-.391-1.414 0l-4.293 4.29299-4.29297-4.29299c-.391-.391-1.023-.391-1.414 0s-.391 1.023 0 1.414l4.29297 4.29299-4.29297 4.293c-.391.391-.391 1.023 0 1.414.195.195.451.293.707.293s.512-.098.707-.293l4.29297-4.293 4.293 4.293c.195.195.451.293.707.293s.512-.098.707-.293c.391-.391.391-1.023 0-1.414z" fill="#fff"/></svg>

<svg width="24" height="24" viewBox="0 0 24 24" fill="none" xmlns="http://www.w3.org/2000/svg">
<path d="M13.4141 12L17.7071 7.70701C18.0981 7.31601 18.0981 6.68401 17.7071 6.29301C17.3161 5.90201 16.6841 5.90201 16.2931 6.29301L12.0001 10.586L7.70713 6.29301C7.31613 5.90201 6.68413 5.90201 6.29313 6.29301C5.90213 6.68401 5.90213 7.31601 6.29313 7.70701L10.5861 12L6.29313 16.293C5.90213 16.684 5.90213 17.316 6.29313 17.707C6.48813 17.902 6.74413 18 7.00013 18C7.25613 18 7.51213 17.902 7.70713 17.707L12.0001 13.414L16.2931 17.707C16.4881 17.902 16.7441 18 17.0001 18C17.2561 18 17.5121 17.902 17.7071 17.707C18.0981 17.316 18.0981 16.684 17.7071 16.293L13.4141 12Z" fill="white"/>
<mask id="mask0_2344_742" style="mask-type:alpha" maskUnits="userSpaceOnUse" x="5" y="5" width="14" height="13">
<path d="M13.4141 12L17.7071 7.70701C18.0981 7.31601 18.0981 6.68401 17.7071 6.29301C17.3161 5.90201 16.6841 5.90201 16.2931 6.29301L12.0001 10.586L7.70713 6.29301C7.31613 5.90201 6.68413 5.90201 6.29313 6.29301C5.90213 6.68401 5.90213 7.31601 6.29313 7.70701L10.5861 12L6.29313 16.293C5.90213 16.684 5.90213 17.316 6.29313 17.707C6.48813 17.902 6.74413 18 7.00013 18C7.25613 18 7.51213 17.902 7.70713 17.707L12.0001 13.414L16.2931 17.707C16.4881 17.902 16.7441 18 17.0001 18C17.2561 18 17.5121 17.902 17.7071 17.707C18.0981 17.316 18.0981 16.684 17.7071 16.293L13.4141 12Z" fill="white"/>
</mask>
<g mask="url(#mask0_2344_742)">
</g>
</svg>
